src/images/chap-4.svg

<svg xmlns="http://www.w3.org/2000/svg" width="326.824" height="110.202" viewBox="0 0 326.824 110.202">
  <g id="Group_1370" data-name="Group 1370" transform="translate(-973.681 -142.592)">
    <g id="Group_1334" data-name="Group 1334" opacity="0.8">
      <path id="Path_6697" data-name="Path 6697" d="M1017.658,246.981,974.286,221.94V171.858l43.372,25.041Z" fill="#1c3b40" stroke="#1c3b40" stroke-miterlimit="10" stroke-width="0.605" opacity="0.9"/>
      <path id="Path_6698" data-name="Path 6698" d="M1061.009,221.94l-43.372,25.041V196.9l43.372-25.041Z" fill="#1c3b40" stroke="#1c3b40" stroke-miterlimit="10" stroke-width="0.605"/>
      <path id="Path_6699" data-name="Path 6699" d="M1017.658,196.9l-43.372-25.041,43.372-25.041,43.372,25.041Z" fill="#1c3b40" stroke="#1c3b40" stroke-miterlimit="10" stroke-width="0.605" opacity="0.87"/>
    </g>
    <path id="Path_6700" data-name="Path 6700" d="M1204.636,142.592" fill="#1c3b40" stroke="#a5b2a6" stroke-miterlimit="10" stroke-width="0.602"/>
    <g id="Group_1350" data-name="Group 1350">
      <g id="Group_1349" data-name="Group 1349">
        <path id="Path_6701" data-name="Path 6701" d="M1148.249,236.708l-32.378-18.694V180.628l32.378,18.694Z" fill="#1c3b40" stroke="#a5b2a6" stroke-miterlimit="10" stroke-width="0.452" opacity="0.2"/>
        <path id="Path_6702" data-name="Path 6702" d="M1180.611,218.015l-32.378,18.694V199.321l32.378-18.694Z" fill="#1c3b40" stroke="#a5b2a6" stroke-miterlimit="10" stroke-width="0.452" opacity="0.2"/>
        <path id="Path_6703" data-name="Path 6703" d="M1144.536,252.286l-42.092-24.3v-48.6l42.092,24.3Z" fill="#1c3b40" stroke="#1c3b40" stroke-miterlimit="10" stroke-width="0.587" opacity="0.6"/>
        <path id="Path_6704" data-name="Path 6704" d="M1192.895,227.984l-42.092,24.3v-48.6l42.092-24.3Z" fill="#1c3b40" stroke="#1c3b40" stroke-miterlimit="10" stroke-width="0.587" opacity="0.7"/>
        <path id="Path_6705" data-name="Path 6705" d="M1148.249,199.321l-32.378-18.694,32.378-18.693,32.378,18.694Z" fill="#a5b2a6" stroke="#a5b2a6" stroke-miterlimit="10" stroke-width="0.649" opacity="0.2"/>
        <path id="Path_6706" data-name="Path 6706" d="M1148.233,196.758l-27.938-16.13,27.938-16.13,27.938,16.13Z" fill="#f6ebe8" stroke="#a5b2a6" stroke-miterlimit="10" stroke-width="0.452"/>
        <g id="Group_1341" data-name="Group 1341">
          <g id="Group_1337" data-name="Group 1337">
            <g id="Group_1335" data-name="Group 1335">
              <path id="Path_6707" data-name="Path 6707" d="M1175.949,180.628h0Z" fill="#f6ebe8"/>
            </g>
            <g id="Group_1336" data-name="Group 1336">
              <path id="Path_6708" data-name="Path 6708" d="M1175.949,180.628h0Z" fill="none" stroke="#f6ebe8" stroke-miterlimit="10" stroke-width="0.452"/>
            </g>
          </g>
          <g id="Group_1340" data-name="Group 1340">
            <g id="Group_1338" data-name="Group 1338">
              <path id="Path_6709" data-name="Path 6709" d="M1148.011,164.5l-27.937,16.13,27.938,16.13V164.5Z" fill="#f6ebe8"/>
            </g>
            <g id="Group_1339" data-name="Group 1339">
              <path id="Path_6710" data-name="Path 6710" d="M1148.011,164.5l-27.937,16.13,27.938,16.13V164.5Z" fill="none" stroke="#f6ebe8" stroke-miterlimit="10" stroke-width="0.452"/>
            </g>
          </g>
        </g>
        <g id="Group_1348" data-name="Group 1348">
          <g id="Group_1344" data-name="Group 1344">
            <g id="Group_1342" data-name="Group 1342">
              <path id="Path_6711" data-name="Path 6711" d="M1120.5,180.628h0Z" fill="#e3c7b6"/>
            </g>
            <g id="Group_1343" data-name="Group 1343">
              <path id="Path_6712" data-name="Path 6712" d="M1120.5,180.628h0Z" fill="none" stroke="#e3c7b6" stroke-miterlimit="10" stroke-width="0.452"/>
            </g>
          </g>
          <g id="Group_1347" data-name="Group 1347">
            <g id="Group_1345" data-name="Group 1345">
              <path id="Path_6713" data-name="Path 6713" d="M1148.44,164.5h0v32.259l27.938-16.13Z" fill="#e3c7b6"/>
            </g>
            <g id="Group_1346" data-name="Group 1346">
              <path id="Path_6714" data-name="Path 6714" d="M1148.44,164.5h0v32.259l27.938-16.13Z" fill="none" stroke="#e3c7b6" stroke-miterlimit="10" stroke-width="0.452"/>
            </g>
          </g>
        </g>
      </g>
      <path id="Path_6715" data-name="Path 6715" d="M1148.249,194.129" fill="#a5b2a6" stroke="#a5b2a6" stroke-miterlimit="10" stroke-width="0.452"/>
      <path id="Path_6716" data-name="Path 6716" d="M1148.5,196.9" fill="none" stroke="#1c3b40" stroke-miterlimit="10" stroke-width="0.452"/>
      <path id="Path_6717" data-name="Path 6717" d="M1148.5,193.654" fill="none" stroke="#1c3b40" stroke-miterlimit="10" stroke-width="0.452"/>
      <path id="Path_6718" data-name="Path 6718" d="M1147.849,193.654" fill="none" stroke="#a5b2a6" stroke-miterlimit="10" stroke-width="0.452"/>
      <path id="Path_6719" data-name="Path 6719" d="M1147.849,199.5" fill="none" stroke="#1c3b40" stroke-miterlimit="10" stroke-width="0.452"/>
      <path id="Path_6720" data-name="Path 6720" d="M1148.285,190.374" fill="#e0dedc" stroke="#1c3b40" stroke-miterlimit="10" stroke-width="0.452"/>
      <path id="Path_6721" data-name="Path 6721" d="M1148.261,196.555" fill="#e0dedc" stroke="#1c3b40" stroke-miterlimit="10" stroke-width="0.452"/>
      <path id="Path_6722" data-name="Path 6722" d="M1148.012,191.9l-42.092-24.3,42.091-24.3,42.092,24.3Z" fill="#1c3b40" stroke="#1c3b40" stroke-miterlimit="10" stroke-width="0.587" opacity="0.79"/>
    </g>
    <g id="Group_1369" data-name="Group 1369">
      <g id="Group_1355" data-name="Group 1355" opacity="0.2">
        <g id="Group_1352" data-name="Group 1352">
          <g id="Group_1351" data-name="Group 1351">
            <path id="Path_6723" data-name="Path 6723" d="M1241.03,217.474h0Z" fill="#1c3b40"/>
          </g>
        </g>
        <g id="Group_1354" data-name="Group 1354">
          <g id="Group_1353" data-name="Group 1353">
            <path id="Path_6724" data-name="Path 6724" d="M1268.555,201.583h0v31.783l27.525-15.891Z" fill="#1c3b40"/>
          </g>
        </g>
      </g>
      <path id="Path_6725" data-name="Path 6725" d="M1268.156,236.156l-31.9-18.417V180.9l31.9,18.417Z" fill="#1c3b40" opacity="0.12"/>
      <path id="Path_6726" data-name="Path 6726" d="M1300.039,217.738l-31.9,18.417V199.321l31.9-18.417Z" fill="#1c3b40" opacity="0.2"/>
      <g id="Path_6727" data-name="Path 6727" fill="#1c3b40" stroke-miterlimit="10" opacity="0.12">
        <path d="M 1268.1396484375 198.1927185058594 L 1267.534545898438 197.8433990478516 L 1240.009765625 181.9519500732422 L 1238.194702148438 180.9039916992188 L 1240.009765625 179.8560180664062 L 1267.534301757812 163.9646759033203 L 1268.139404296875 163.6153564453125 L 1268.744506835938 163.9646759033203 L 1296.269287109375 179.8561248779297 L 1298.084350585938 180.9040832519531 L 1296.269287109375 181.9520568847656 L 1268.744750976562 197.8433990478516 L 1268.1396484375 198.1927185058594 Z" stroke="none"/>
        <path d="M 1268.1396484375 196.7954254150391 L 1295.664184570312 180.9040832519531 L 1268.139404296875 165.0126495361328 L 1240.614868164062 180.9039916992188 L 1268.1396484375 196.7954254150391 M 1268.1396484375 199.5900115966797 L 1266.929565429688 198.891357421875 L 1239.40478515625 182.9999237060547 L 1235.774536132812 180.9039916992188 L 1239.40478515625 178.8080444335938 L 1266.929321289062 162.9167175292969 L 1268.139404296875 162.2180633544922 L 1269.349487304688 162.9167175292969 L 1296.874267578125 178.8081512451172 L 1300.504516601562 180.9040832519531 L 1296.874267578125 183.0000305175781 L 1269.349731445312 198.891357421875 L 1268.1396484375 199.5900115966797 Z" stroke="none" fill="#a5b2a6"/>
      </g>
      <g id="Group_1362" data-name="Group 1362">
        <g id="Group_1358" data-name="Group 1358">
          <g id="Group_1356" data-name="Group 1356">
            <path id="Path_6728" data-name="Path 6728" d="M1240.819,180.9h0Z" fill="#e3c7b6"/>
          </g>
          <g id="Group_1357" data-name="Group 1357">
            <path id="Path_6729" data-name="Path 6729" d="M1240.819,180.9h0Z" fill="none" stroke="#e3c7b6" stroke-miterlimit="10" stroke-width="0.445"/>
          </g>
        </g>
        <g id="Group_1361" data-name="Group 1361" opacity="0.05">
          <g id="Group_1359" data-name="Group 1359">
            <path id="Path_6730" data-name="Path 6730" d="M1268.555,165.013h0V196.8L1296.08,180.9Z" fill="#1c3b40"/>
          </g>
          <g id="Group_1360" data-name="Group 1360">
            <path id="Path_6731" data-name="Path 6731" d="M1268.555,165.013h0V196.8L1296.08,180.9Z" fill="none" stroke="#a5b2a6" stroke-miterlimit="10" stroke-width="0.445"/>
          </g>
        </g>
      </g>
      <g id="Group_1368" data-name="Group 1368">
        <g id="Group_1365" data-name="Group 1365">
          <g id="Group_1363" data-name="Group 1363">
            <path id="Path_6732" data-name="Path 6732" d="M1295.657,217.474h0Z" fill="#f6ebe8"/>
          </g>
          <g id="Group_1364" data-name="Group 1364">
            <path id="Path_6733" data-name="Path 6733" d="M1295.657,217.474h0Z" fill="none" stroke="#f6ebe8" stroke-miterlimit="10" stroke-width="0.445"/>
          </g>
        </g>
        <g id="Group_1367" data-name="Group 1367" opacity="0.12">
          <g id="Group_1366" data-name="Group 1366">
            <path id="Path_6734" data-name="Path 6734" d="M1268.133,201.582l-27.525,15.891,27.525,15.891V201.582Z" fill="#1c3b40"/>
          </g>
        </g>
      </g>
    </g>
  </g>
</svg>

<?xml version="1.0" encoding="utf-8"?>
<!-- Generator: Adobe Illustrator 25.0.0, SVG Export Plug-In . SVG Version: 6.00 Build 0)  -->
<svg version="1.1" id="Layer_1" xmlns="http://www.w3.org/2000/svg" xmlns:xlink="http://www.w3.org/1999/xlink" x="0px" y="0px"
	 viewBox="0 0 326.82 110.2" style="enable-background:new 0 0 326.82 110.2;" xml:space="preserve">
<g id="Group_1370" transform="translate(-973.681 -142.592)">
	<g id="Group_1334" style="opacity:0.8;">
		
			<path id="Path_6697" style="opacity:0.9;fill:#1C3B40;stroke:#1C3B40;stroke-width:0.605;stroke-miterlimit:10;enable-background:new    ;" d="
			M1017.66,246.98l-43.37-25.04v-50.08l43.37,25.04V246.98z"/>
		<path id="Path_6698" style="fill:#1C3B40;stroke:#1C3B40;stroke-width:0.605;stroke-miterlimit:10;" d="M1061.01,221.94
			l-43.37,25.04V196.9l43.37-25.04V221.94z"/>
		
			<path id="Path_6699" style="opacity:0.87;fill:#1C3B40;stroke:#1C3B40;stroke-width:0.605;stroke-miterlimit:10;enable-background:new    ;" d="
			M1017.66,196.9l-43.37-25.04l43.37-25.04l43.37,25.04L1017.66,196.9z"/>
	</g>
	<path id="Path_6700" style="fill:#1C3B40;stroke:#A5B2A6;stroke-width:0.602;stroke-miterlimit:10;" d="M1204.64,142.59"/>
	<g id="Group_1350">
		<g id="Group_1349">
			
				<path id="Path_6701" style="opacity:0.2;fill:#1C3B40;stroke:#A5B2A6;stroke-width:0.452;stroke-miterlimit:10;enable-background:new    ;" d="
				M1148.25,236.71l-32.38-18.69v-37.39l32.38,18.69V236.71z"/>
			
				<path id="Path_6702" style="opacity:0.2;fill:#1C3B40;stroke:#A5B2A6;stroke-width:0.452;stroke-miterlimit:10;enable-background:new    ;" d="
				M1180.61,218.01l-32.38,18.69v-37.39l32.38-18.69V218.01z"/>
			
				<path id="Path_6703" style="opacity:0.6;fill:#1C3B40;stroke:#1C3B40;stroke-width:0.587;stroke-miterlimit:10;enable-background:new    ;" d="
				M1144.54,252.29l-42.09-24.3v-48.6l42.09,24.3V252.29z"/>
			
				<path id="Path_6704" style="opacity:0.7;fill:#1C3B40;stroke:#1C3B40;stroke-width:0.587;stroke-miterlimit:10;enable-background:new    ;" d="
				M1192.9,227.98l-42.09,24.3v-48.6l42.09-24.3V227.98z"/>
			
				<path id="Path_6705" style="opacity:0.2;fill:#A5B2A6;stroke:#A5B2A6;stroke-width:0.649;stroke-miterlimit:10;enable-background:new    ;" d="
				M1148.25,199.32l-32.38-18.69l32.38-18.69l32.38,18.69L1148.25,199.32z"/>
			<path id="Path_6706" style="fill:#F6EBE8;stroke:#A5B2A6;stroke-width:0.452;stroke-miterlimit:10;" d="M1148.23,196.76
				l-27.94-16.13l27.94-16.13l27.94,16.13L1148.23,196.76z"/>
			<g id="Group_1341">
				<g id="Group_1337">
					<g id="Group_1335">
						<path id="Path_6707" style="fill:#F6EBE8;" d="M1175.95,180.63L1175.95,180.63z"/>
					</g>
					<g id="Group_1336">
						<path id="Path_6708" style="fill:none;stroke:#F6EBE8;stroke-width:0.452;stroke-miterlimit:10;" d="M1175.95,180.63
							L1175.95,180.63z"/>
					</g>
				</g>
				<g id="Group_1340">
					<g id="Group_1338">
						<path id="Path_6709" style="fill:#F6EBE8;" d="M1148.01,164.5l-27.94,16.13l27.94,16.13L1148.01,164.5L1148.01,164.5z"/>
					</g>
					<g id="Group_1339">
						<path id="Path_6710" style="fill:none;stroke:#F6EBE8;stroke-width:0.452;stroke-miterlimit:10;" d="M1148.01,164.5
							l-27.94,16.13l27.94,16.13L1148.01,164.5L1148.01,164.5z"/>
					</g>
				</g>
			</g>
			<g id="Group_1348">
				<g id="Group_1344">
					<g id="Group_1342">
						<path id="Path_6711" style="fill:#E3C7B6;" d="M1120.5,180.63L1120.5,180.63z"/>
					</g>
					<g id="Group_1343">
						<path id="Path_6712" style="fill:none;stroke:#E3C7B6;stroke-width:0.452;stroke-miterlimit:10;" d="M1120.5,180.63
							L1120.5,180.63z"/>
					</g>
				</g>
				<g id="Group_1347">
					<g id="Group_1345">
						<path id="Path_6713" style="fill:#E3C7B6;" d="M1148.44,164.5L1148.44,164.5v32.26l27.94-16.13L1148.44,164.5z"/>
					</g>
					<g id="Group_1346">
						<path id="Path_6714" style="fill:none;stroke:#E3C7B6;stroke-width:0.452;stroke-miterlimit:10;" d="M1148.44,164.5
							L1148.44,164.5v32.26l27.94-16.13L1148.44,164.5z"/>
					</g>
				</g>
			</g>
		</g>
		<path id="Path_6715" style="fill:#A5B2A6;stroke:#A5B2A6;stroke-width:0.452;stroke-miterlimit:10;" d="M1148.25,194.13"/>
		<path id="Path_6716" style="fill:none;stroke:#1C3B40;stroke-width:0.452;stroke-miterlimit:10;" d="M1148.5,196.9"/>
		<path id="Path_6717" style="fill:none;stroke:#1C3B40;stroke-width:0.452;stroke-miterlimit:10;" d="M1148.5,193.65"/>
		<path id="Path_6718" style="fill:none;stroke:#A5B2A6;stroke-width:0.452;stroke-miterlimit:10;" d="M1147.85,193.65"/>
		<path id="Path_6719" style="fill:none;stroke:#1C3B40;stroke-width:0.452;stroke-miterlimit:10;" d="M1147.85,199.5"/>
		<path id="Path_6720" style="fill:#E0DEDC;stroke:#1C3B40;stroke-width:0.452;stroke-miterlimit:10;" d="M1148.29,190.37"/>
		<path id="Path_6721" style="fill:#E0DEDC;stroke:#1C3B40;stroke-width:0.452;stroke-miterlimit:10;" d="M1148.26,196.55"/>
		
			<path id="Path_6722" style="opacity:0.79;fill:#1C3B40;stroke:#1C3B40;stroke-width:0.587;stroke-miterlimit:10;enable-background:new    ;" d="
			M1148.01,191.9l-42.09-24.3l42.09-24.3l42.09,24.3L1148.01,191.9z"/>
	</g>
	<g id="Group_1369">
		<g id="Group_1355" style="opacity:0.2;">
			<g id="Group_1352">
				<g id="Group_1351">
					<path id="Path_6723" style="fill:#1C3B40;" d="M1241.03,217.47L1241.03,217.47z"/>
				</g>
			</g>
			<g id="Group_1354">
				<g id="Group_1353">
					<path id="Path_6724" style="fill:#1C3B40;" d="M1268.56,201.58L1268.56,201.58v31.78l27.53-15.89L1268.56,201.58z"/>
				</g>
			</g>
		</g>
		<path id="Path_6725" style="opacity:0.12;fill:#1C3B40;enable-background:new    ;" d="M1268.16,236.16l-31.9-18.42V180.9
			l31.9,18.42V236.16z"/>
		<path id="Path_6726" style="opacity:0.2;fill:#1C3B40;enable-background:new    ;" d="M1300.04,217.74l-31.9,18.42v-36.83
			l31.9-18.42V217.74z"/>
		<g id="Path_6727" style="opacity:0.12;">
			<path style="fill:#1C3B40;" d="M1268.14,198.19l-0.61-0.35l-27.52-15.89l-1.82-1.05l1.82-1.05l27.52-15.89l0.61-0.35l0.61,0.35
				l27.52,15.89l1.82,1.05l-1.82,1.05l-27.52,15.89L1268.14,198.19z"/>
			<path style="fill:#A5B2A6;" d="M1268.14,196.8l27.52-15.89l-27.52-15.89l-27.52,15.89L1268.14,196.8 M1268.14,199.59l-1.21-0.7
				L1239.4,183l-3.63-2.1l3.63-2.1l27.52-15.89l1.21-0.7l1.21,0.7l27.52,15.89l3.63,2.1l-3.63,2.1l-27.52,15.89L1268.14,199.59z"/>
		</g>
		<g id="Group_1362">
			<g id="Group_1358">
				<g id="Group_1356">
					<path id="Path_6728" style="fill:#E3C7B6;" d="M1240.82,180.9L1240.82,180.9z"/>
				</g>
				<g id="Group_1357">
					<path id="Path_6729" style="fill:none;stroke:#E3C7B6;stroke-width:0.445;stroke-miterlimit:10;" d="M1240.82,180.9
						L1240.82,180.9z"/>
				</g>
			</g>
			<g id="Group_1361" style="opacity:0.05;">
				<g id="Group_1359">
					<path id="Path_6730" style="fill:#1C3B40;" d="M1268.56,165.01L1268.56,165.01v31.79l27.52-15.9L1268.56,165.01z"/>
				</g>
				<g id="Group_1360">
					<path id="Path_6731" style="fill:none;stroke:#A5B2A6;stroke-width:0.445;stroke-miterlimit:10;" d="M1268.56,165.01
						L1268.56,165.01v31.79l27.52-15.9L1268.56,165.01z"/>
				</g>
			</g>
		</g>
		<g id="Group_1368">
			<g id="Group_1365">
				<g id="Group_1363">
					<path id="Path_6732" style="fill:#F6EBE8;" d="M1295.66,217.47L1295.66,217.47z"/>
				</g>
				<g id="Group_1364">
					<path id="Path_6733" style="fill:none;stroke:#F6EBE8;stroke-width:0.445;stroke-miterlimit:10;" d="M1295.66,217.47
						L1295.66,217.47z"/>
				</g>
			</g>
			<g id="Group_1367" style="opacity:0.12;">
				<g id="Group_1366">
					<path id="Path_6734" style="fill:#1C3B40;" d="M1268.13,201.58l-27.53,15.89l27.53,15.89V201.58z"/>
				</g>
			</g>
		</g>
	</g>
</g>
</svg>
